svg/logo/arc_browser_line.svg

<svg xmlns="http://www.w3.org/2000/svg" width="24" height="24" viewBox="0 0 24 24"><g fill="none" fill-rule="evenodd"><path d="M24,0 L24,24 L0,24 L0,0 L24,0 Z M12.5935,23.2578 L12.5819,23.2595 L12.5109,23.295 L12.4919,23.2987 L12.4767,23.295 L12.4057,23.2595 C12.3958,23.2564 12.387,23.259 12.3821,23.2649 L12.378,23.2758 L12.3609,23.7031 L12.3659,23.7235 L12.3769,23.7357 L12.4805,23.8097 L12.4953,23.8136 L12.5071,23.8097 L12.6107,23.7357 L12.6233,23.7197 L12.6267,23.7031 L12.6096,23.2758 C12.6076,23.2657 12.601,23.2593 12.5935,23.2578 Z M12.8584,23.1453 L12.8445,23.1473 L12.6598,23.2397 L12.6499,23.2499 L12.6472,23.2611 L12.6651,23.6906 L12.6699,23.7034 L12.6784,23.7105 L12.8793,23.8032 C12.8914,23.8069 12.9022,23.803 12.9078,23.7952 L12.9118,23.7812 L12.8777,23.1665 C12.8753,23.1546 12.8674,23.147 12.8584,23.1453 Z M12.143,23.1473 C12.1332,23.1424 12.1222,23.1453 12.1156,23.1526 L12.1099,23.1665 L12.0758,23.7812 C12.0751,23.7927 12.0828,23.8019 12.0926,23.8046 L12.1083,23.8032 L12.3092,23.7105 L12.3186,23.7024 L12.3225,23.6906 L12.3404,23.2611 L12.3372,23.2485 L12.3278,23.2397 L12.143,23.1473 Z"/><path fill="#09244B" d="M9.30571,4.63685 C10.227,2.79423 12.8565,2.79422 13.7778,4.63685 L16.0128,9.10669 C16.204,8.70962 16.3436,8.2835 16.4231,7.83697 C16.6974,6.2964 18.1686,5.26988 19.7092,5.54418 C21.2498,5.81848 22.2763,7.28973 22.002,8.83031 C21.5923,11.1313 20.4438,13.1744 18.8125,14.7062 L19.576,16.2331 C20.2758,17.6327 19.7085,19.3346 18.3089,20.0345 C16.9093,20.7343 15.2074,20.167 14.5076,18.7673 L13.7959,17.3439 C13.0687,17.501 12.3145,17.5836 11.5418,17.5836 C10.7682,17.5836 10.0141,17.5009 9.28773,17.3439 L8.57599,18.7673 C7.87619,20.167 6.17428,20.7343 4.77468,20.0345 C3.37507,19.3346 2.80777,17.6327 3.50757,16.2331 L4.27115,14.706 C3.60257,14.0784 3.01568,13.3657 2.52799,12.5857 C1.69841,11.2589 2.1015,9.51081 3.42831,8.68124 C4.61137,7.94154 6.12938,8.18188 7.03252,9.18324 L9.30571,4.63685 Z M8.44452,10.8314 C8.87775,11.1784 9.36993,11.4537 9.90345,11.6403 L11.0946,9.25806 C11.2788,8.88953 11.8047,8.88953 11.989,9.25806 L16.2964,17.8729 C16.5022,18.2846 17.0028,18.4514 17.4145,18.2456 C17.8261,18.0398 17.993,17.5392 17.7871,17.1276 L11.989,5.53128 C11.8047,5.16275 11.2788,5.16275 11.0946,5.53128 L8.44452,10.8314 Z M12.0724,13.897 C11.8971,13.9102 11.7202,13.917 11.5418,13.917 C9.05303,13.917 6.8681,12.6109 5.63698,10.6419 C5.39299,10.2516 4.87884,10.1331 4.4886,10.3771 C4.09837,10.621 3.97981,11.1352 4.2238,11.5254 C5.74662,13.961 8.45457,15.5836 11.5418,15.5836 C11.9923,15.5836 12.4343,15.5492 12.8653,15.4829 L12.0724,13.897 Z M5.88377,15.9529 L5.29642,17.1276 C5.0906,17.5392 5.25745,18.0398 5.6691,18.2456 C6.08075,18.4514 6.58131,18.2846 6.78714,17.8729 L7.35942,16.7283 C6.84529,16.5079 6.35214,16.2481 5.88377,15.9529 Z M17.8693,12.8197 C18.9687,11.633 19.7378,10.1376 20.033,8.47972 C20.1136,8.02661 19.8117,7.59389 19.3586,7.51321 C18.9055,7.43253 18.4728,7.73445 18.3921,8.18756 C18.1926,9.30811 17.7249,10.3349 17.0592,11.1995 L17.8693,12.8197 Z"/></g></svg>

<svg xmlns="http://www.w3.org/2000/svg" width="24" height="24"><g fill="none" fill-rule="evenodd"><path d="M24 0v24H0V0zM12.594 23.258l-.012.002-.071.035-.02.004-.014-.004-.071-.036c-.01-.003-.019 0-.024.006l-.004.01-.017.428.005.02.01.013.104.074.015.004.012-.004.104-.074.012-.016.004-.017-.017-.427c-.002-.01-.009-.017-.016-.018m.264-.113-.014.002-.184.093-.01.01-.003.011.018.43.005.012.008.008.201.092c.012.004.023 0 .029-.008l.004-.014-.034-.614c-.003-.012-.01-.02-.02-.022m-.715.002a.023.023 0 0 0-.027.006l-.006.014-.034.614c0 .012.007.02.017.024l.015-.002.201-.093.01-.008.003-.011.018-.43-.003-.012-.01-.01z"/><path fill="#09244B" d="M9.306 4.637c.921-1.843 3.55-1.843 4.472 0l2.235 4.47c.191-.397.33-.823.41-1.27a2.833 2.833 0 1 1 5.579.993 10.612 10.612 0 0 1-3.19 5.876l.764 1.527a2.833 2.833 0 0 1-5.068 2.534l-.712-1.423a10.666 10.666 0 0 1-4.508 0l-.712 1.423a2.833 2.833 0 1 1-5.068-2.534l.763-1.527a10.663 10.663 0 0 1-1.743-2.12 2.833 2.833 0 0 1 4.505-3.403zm-.861 6.194c.433.347.925.623 1.458.81l1.192-2.383a.5.5 0 0 1 .894 0l4.307 8.615a.833.833 0 0 0 1.491-.745L11.99 5.53a.5.5 0 0 0-.894 0zm3.627 3.066a6.953 6.953 0 0 1-6.435-3.255.833.833 0 1 0-1.413.883 8.62 8.62 0 0 0 8.641 3.958zm-6.188 2.056-.588 1.175a.833.833 0 1 0 1.491.745l.572-1.145c-.514-.22-1.007-.48-1.475-.775m11.985-3.133a8.603 8.603 0 0 0 2.164-4.34.833.833 0 0 0-1.64-.292 6.923 6.923 0 0 1-1.334 3.012z"/></g></svg>
